__todo__/vault.svg

<svg height="158" preserveAspectRatio="xMidYMid" viewBox="0 0 512 158" width="512" xmlns="http://www.w3.org/2000/svg"><path d="m283.431524 27.3685936h19.54547l-29.787099 99.4795314h-27.763451l-29.614349-99.4054956h19.54547l24.03698 82.8461396zm73.791552 99.4795314h-14.807174l-1.357324-4.935724c-6.443475 4.183785-13.960548 6.412336-21.643153 6.416442-13.277099 0-18.953183-9.106412-18.953183-21.643153 0-14.8071744 6.416442-20.4585792 21.198938-20.4585792h17.472465v-7.6503733c0-8.0699099-2.245754-10.9079516-13.894065-10.9079516-6.771115.0680294-13.518006.82044-20.137757 2.2457547l-2.245754-13.8940651c8.120712-2.2382526 16.501975-3.3917136 24.92541-3.4303286 22.827726 0 29.614348 8.0699099 29.614348 26.2827341zm-18.188145-27.4673078h-13.44985c-5.972227 0-7.601016 1.6534678-7.601016 7.1814798 0 4.935724 1.628789 7.403587 7.403587 7.403587 4.820979-.076995 9.546226-1.357986 13.745993-3.726472zm46.869642-45.2852743v50.7392501c0 3.874544 1.628789 5.824155 5.824155 5.824155s12.339312-2.68997 18.953183-6.120298v-50.4431071h18.212824v72.7525821h-13.894065l-1.776861-6.120298c-9.068035 4.547216-18.987896 7.144874-29.120776 7.625694-12.092525 0-16.411284-8.514125-16.411284-21.495081v-52.7628971zm52.681458 72.7525821v-102.4656449l18.212824-2.4678624v104.9335073zm72.525539-1.406681c-5.136424 1.793477-10.527222 2.751656-15.96707 2.838041-13.277099 0-20.014364-6.26837-20.014364-19.249326v-40.4729427h-10.883273v-14.4616734h10.883273v-18.0647525l18.212825-2.4678623v20.6066507h18.657039l-1.184574 14.4616734h-17.472465v38.0050808c-.359523 2.748288 1.298633 5.360196 3.938708 6.204205.848945.271465 1.747246.345501 2.625805.212237 3.089373-.089836 6.152489-.596205 9.106413-1.505396z"/><path d="m-0 0 78.6014161 157.745762 79.1443459-157.745762zm87.9299358 31.6626741h9.1557694v9.1557693h-9.1557694zm-18.2128242 36.5737201h-9.1310907v-9.1310907h9.1310907zm0-13.7213147h-9.1310907v-9.1064121h9.1310907zm0-13.6966361h-9.1310907v-9.1557693h9.1310907zm13.8200292 41.1392655h-9.1310907v-9.1557693h9.1310907zm0-13.7213147h-9.1310907v-9.1310907h9.1310907zm0-13.7213147h-9.1310907v-9.1064121h9.1310907zm0-13.6966361h-9.1310907v-9.1557693h9.1310907zm4.392795 4.590224h9.1557694v9.1310907h-9.1557694zm0 22.8524054v-9.1310907h9.1557694v9.1310907z" fill="#ffd814"/></svg>

<?xml version="1.0" encoding="UTF-8"?>
<svg width="512px" height="158px" viewBox="0 0 512 158" version="1.1" xmlns="http://www.w3.org/2000/svg" preserveAspectRatio="xMidYMid">
    <title>Vault</title>
    <g>
        <path d="M283.431524,27.3685936 L302.976994,27.3685936 L273.189895,126.848125 L245.426444,126.848125 L215.812095,27.4426294 L235.357565,27.4426294 L259.394545,110.288769 L283.431524,27.3685936 L283.431524,27.3685936 Z M357.223076,126.848125 L342.415902,126.848125 L341.058578,121.912401 C334.615103,126.096186 327.09803,128.324737 319.415425,128.328843 C306.138326,128.328843 300.462242,119.222431 300.462242,106.68569 C300.462242,91.8785156 306.878684,86.2271108 321.66118,86.2271108 L339.133645,86.2271108 L339.133645,78.5767375 C339.133645,70.5068276 336.887891,67.6687859 325.23958,67.6687859 C318.468465,67.7368153 311.721574,68.4892259 305.101823,69.9145406 L302.856069,56.0204755 C310.976781,53.7822229 319.358044,52.6287619 327.781479,52.5901469 C350.609205,52.5901469 357.395827,60.6600568 357.395827,78.872881 L357.223076,126.848125 Z M339.034931,99.3808172 L325.585081,99.3808172 C319.612854,99.3808172 317.984065,101.034285 317.984065,106.562297 C317.984065,111.498021 319.612854,113.965884 325.387652,113.965884 C330.208631,113.888889 334.933878,112.607898 339.133645,110.239412 L339.034931,99.3808172 L339.034931,99.3808172 Z M385.904573,54.0955429 L385.904573,104.834793 C385.904573,108.709337 387.533362,110.658948 391.728728,110.658948 C395.924094,110.658948 404.06804,107.968978 410.681911,104.53865 L410.681911,54.0955429 L428.894735,54.0955429 L428.894735,126.848125 L415.00067,126.848125 L413.223809,120.727827 C404.155774,125.275043 394.235913,127.872701 384.103033,128.353521 C372.010508,128.353521 367.691749,119.839396 367.691749,106.85844 L367.691749,54.0955429 L385.904573,54.0955429 L385.904573,54.0955429 Z M438.586031,126.848125 L438.586031,24.3824801 L456.798855,21.9146177 L456.798855,126.848125 L438.586031,126.848125 Z M511.11157,125.441444 C505.975146,127.234921 500.584348,128.1931 495.1445,128.279485 C481.867401,128.279485 475.130136,122.011115 475.130136,109.030159 L475.130136,68.5572163 L464.246863,68.5572163 L464.246863,54.0955429 L475.130136,54.0955429 L475.130136,36.0307904 L493.342961,33.5629281 L493.342961,54.1695788 L512,54.1695788 L510.815426,68.6312522 L493.342961,68.6312522 L493.342961,106.636333 C492.983438,109.384621 494.641594,111.996529 497.281669,112.840538 C498.130614,113.112003 499.028915,113.186039 499.907474,113.052775 C502.996847,112.962939 506.059963,112.45657 509.013887,111.547379 L511.11157,125.441444 L511.11157,125.441444 Z" fill="#000000"></path>
        <path d="M-2.80563468e-13,0 L78.6014161,157.745762 L157.745762,0 L-2.80563468e-13,0 Z M87.9299358,31.6626741 L97.0857052,31.6626741 L97.0857052,40.8184434 L87.9299358,40.8184434 L87.9299358,31.6626741 Z M69.7171116,68.2363942 L60.5860209,68.2363942 L60.5860209,59.1053035 L69.7171116,59.1053035 L69.7171116,68.2363942 Z M69.7171116,54.5150795 L60.5860209,54.5150795 L60.5860209,45.4086674 L69.7171116,45.4086674 L69.7171116,54.5150795 Z M69.7171116,40.8184434 L60.5860209,40.8184434 L60.5860209,31.6626741 L69.7171116,31.6626741 L69.7171116,40.8184434 Z M83.5371408,81.9577089 L74.4060501,81.9577089 L74.4060501,72.8019396 L83.5371408,72.8019396 L83.5371408,81.9577089 Z M83.5371408,68.2363942 L74.4060501,68.2363942 L74.4060501,59.1053035 L83.5371408,59.1053035 L83.5371408,68.2363942 Z M83.5371408,54.5150795 L74.4060501,54.5150795 L74.4060501,45.4086674 L83.5371408,45.4086674 L83.5371408,54.5150795 Z M83.5371408,40.8184434 L74.4060501,40.8184434 L74.4060501,31.6626741 L83.5371408,31.6626741 L83.5371408,40.8184434 Z M87.9299358,45.4086674 L97.0857052,45.4086674 L97.0857052,54.5397581 L87.9299358,54.5397581 L87.9299358,45.4086674 Z M87.9299358,68.2610728 L87.9299358,59.1299821 L97.0857052,59.1299821 L97.0857052,68.2610728 L87.9299358,68.2610728 Z" fill="#FFD814"></path>
    </g>
</svg>
